images/footer_ico2.svg

<svg width="24" height="24" viewBox="0 0 24 24" fill="none" xmlns="http://www.w3.org/2000/svg">
<path d="M6 15V10L12 14L18 10V15C18 16.1046 17.1046 17 16 17H8C6.89543 17 6 16.1046 6 15Z" fill="white"/>
<path d="M6.89802 9.13138L12 12.5L17.102 9.13138C17.6627 8.76119 18.0716 8.0619 17.6388 7.54801C17.3566 7.21291 16.9339 7 16.4615 7H7.53846C7.06607 7 6.6434 7.21291 6.36119 7.54801C5.9284 8.0619 6.33734 8.76119 6.89802 9.13138Z" fill="white"/>
<path fill-rule="evenodd" clip-rule="evenodd" d="M12 24C18.6274 24 24 18.6274 24 12C24 5.37258 18.6274 0 12 0C5.37258 0 0 5.37258 0 12C0 18.6274 5.37258 24 12 24ZM12 22C17.5228 22 22 17.5228 22 12C22 6.47715 17.5228 2 12 2C6.47715 2 2 6.47715 2 12C2 17.5228 6.47715 22 12 22Z" fill="white"/>
</svg>

<svg width="24" height="24" fill="none" xmlns="http://www.w3.org/2000/svg"><path d="M6 15v-5l6 4 6-4v5a2 2 0 01-2 2H8a2 2 0 01-2-2z" fill="#fff"/><path d="M6.898 9.131L12 12.5l5.102-3.369c.56-.37.97-1.07.537-1.583A1.535 1.535 0 0016.462 7H7.538c-.472 0-.895.213-1.177.548-.433.514-.024 1.213.537 1.583z" fill="#fff"/><path fill-rule="evenodd" clip-rule="evenodd" d="M12 24c6.627 0 12-5.373 12-12S18.627 0 12 0 0 5.373 0 12s5.373 12 12 12zm0-2c5.523 0 10-4.477 10-10S17.523 2 12 2 2 6.477 2 12s4.477 10 10 10z" fill="#fff"/></svg>
